icon-themes/sifr_svg/cmd/lc_starshapes.star4.svg

<svg viewBox="0 0 24 24" xmlns="http://www.w3.org/2000/svg"><g fill="#555753"><path d="m12 1v.0058594l-4 6.9941406-7 4.001953 7 3.998047 4 6.996094v-.00586l4-6.996093 7-3.998047-7-4.0019534zm0 3.9941406 2.589844 4.4101563 4.410156 2.5898441-4.410156 2.591797-2.589844 4.408203v.005859l-2.5898438-4.408203-4.4101562-2.591797 4.4101562-2.5898438 2.5898438-4.4101562z"/><path d="m12 4.9941406v.0058594l-2.5898438 4.4101562-4.4101562 2.5898438 4.4101562 2.591797 2.5898438 4.408203v-.005859l2.589844-4.408203 4.410156-2.591797-4.410156-2.5898441z" opacity=".35"/></g></svg>

<svg xmlns="http://www.w3.org/2000/svg" viewBox="0 0 24 24">
  <path
     style="fill:#555753"
     d="M 12 1 L 12 1.0058594 L 8 8 L 1 12.001953 L 8 16 L 12 22.996094 L 12 22.990234 L 16 15.994141 L 23 11.996094 L 16 7.9941406 L 12 1 z M 12 4.9941406 L 14.589844 9.4042969 L 19 11.994141 L 14.589844 14.585938 L 12 18.994141 L 12 19 L 9.4101562 14.591797 L 5 12 L 9.4101562 9.4101562 L 12 5 L 12 4.9941406 z "
     />
  <path
     style="opacity:0.35;fill:#555753"
     d="M 12 4.9941406 L 12 5 L 9.4101562 9.4101562 L 5 12 L 9.4101562 14.591797 L 12 19 L 12 18.994141 L 14.589844 14.585938 L 19 11.994141 L 14.589844 9.4042969 L 12 4.9941406 z "
     />
</svg>
